sandman/images/Audible.svg

<svg xmlns="http://www.w3.org/2000/svg" viewBox="0 0 512 512"><path fill="#fff" d="M256 109.9c-86.7 0-161.5 49.8-198 122.2C96.7 178.8 159.5 144 230.4 144c77.5 0 145.1 41.5 182.5 103.3l39.1-19.5c-37.3-70.1-111.1-117.9-196-117.9zm0 68.3c-63.3 0-117.6 38.3-141.1 93 26.3-35.7 68.5-58.9 116.1-58.9 50.5 0 94.9 26.1 120.8 65.6l39.2-19.7c-26.1-47.7-76.8-80-135-80zM0 235.9v38.2l248.3 124.2 7.7 3.8 256-128V236L256 364 0 235.9zm255.5 10.6c-37.5 0-68.9 24.5-80.2 58.3 13.9-14.8 33.5-24.1 55.4-24.1 23.9 0 44.9 11.1 58.9 28.3l39.2-19.6c-14.7-25.5-41.8-42.9-73.3-42.9z"/></svg>

<?xml version="1.0" encoding="utf-8"?>
<!-- Generator: Adobe Illustrator 21.0.0, SVG Export Plug-In . SVG Version: 6.00 Build 0)  -->
<svg version="1.1" id="Layer_1" xmlns="http://www.w3.org/2000/svg" xmlns:xlink="http://www.w3.org/1999/xlink" x="0px" y="0px"
	 viewBox="0 0 512 512" style="enable-background:new 0 0 512 512;" xml:space="preserve">
<g>
	<path fill="#fff" d="M256,109.9c-86.7,0-161.5,49.8-198,122.2c38.7-53.3,101.5-88.1,172.4-88.1c77.5,0,145.1,41.5,182.5,103.3l39.1-19.5
		C414.7,157.7,340.9,109.9,256,109.9z M256,178.2c-63.3,0-117.6,38.3-141.1,93c26.3-35.7,68.5-58.9,116.1-58.9
		c50.5,0,94.9,26.1,120.8,65.6l39.2-19.7C364.9,210.5,314.2,178.2,256,178.2z M0,235.9v38.2c89.1,44.5,248.3,124.2,248.3,124.2
		l7.7,3.8l256-128v-38.1l-256,128C114.2,293,39.5,255.7,0,235.9z M255.5,246.5c-37.5,0-68.9,24.5-80.2,58.3
		c13.9-14.8,33.5-24.1,55.4-24.1c23.9,0,44.9,11.1,58.9,28.3l39.2-19.6C314.1,263.9,287,246.5,255.5,246.5z"/>
</g>
</svg>
